X: 145
T: Duchy prózne śmiertelności,
C: Mikołaj Gomółka
%%abc-version 2.0
%%abcx-abcm2ps-target-version 5.9.1 (29 Sep 2008)
%%abc-creator hum2abc beta
%%abcx-conversion-date 2021/10/04 07:59:09
%%abc-edited-by Marta Lawrence
%%abcx-initial-encoding-date 2020-02-25
%%humdrum-veritas 3455676514
%%humdrum-veritas-data 3420801559
%%linebreak <none>
%%barnumbers 0
L: 1/4
M: C|
N: Derived from pl-wn--sd-xvi-qu-273--148_gomolka-mikolaj--duchy-prozne-smiertelnosci.krn
%%staves [1 2 3 4]
V: 1 clef=treble
V: 2
V: 3
V: 4 clef=tenor
K: F
[V:1] c4c2B2 [|] 
[V:2] A4A2GF [|] 
[V:3] F4F2D2 [|] 
[V:4] F,4F,2G,2 [|] 
[V:1] A2d4d2 [|] 
[V:2] EFGA2<B2A [|] 
[V:3] C2D4D2 [|] 
[V:4] A,2G,2>A,2B,2 [|] 
[V:1] c4c2f2 [|] 
[V:2] GA2GA2c2 [|] 
[V:3] EF2EF2A2 [|] 
[V:4] C4F,2F2 [|] 
[V:1] f4e4 [|] 
[V:2] c4c3B [|] 
[V:3] A4G4 [|] 
[V:4] F4C4 [|] 
[V:1] d2g4g2 [|] 
[V:2] A2=B4B2 [|] 
[V:3] F2G4G2 [|] 
[V:4] D2G,4G,2 [|] 
[V:1] g2>f2e2f4 [|] 
[V:2] c4c2c4 [|] 
[V:3] G4G2A4 [|] 
[V:4] C4C2F4 [|] 
[V:1] f2f4 [|] 
[V:2] c2d4 [|] 
[V:3] A2B4 [|] 
[V:4] F2B,4 [|] 
[V:1] f2e2d2d2 [|] 
[V:2] d2c2A2B2 [|] 
[V:3] B2G2F2F2 [|] 
[V:4] B,2C2D2B,2 [|] 
[V:1] c2d4d2 [|] 
[V:2] G2B4B2 [|] 
[V:3] E2G4G2 [|] 
[V:4] C2G,4G,3 [|] 
[V:1] d2d2>c2AB [|] 
[V:2] B4B2c3 [|] 
[V:3] D2>E2F3E [|] 
[V:4] A,2<B,2A,F,G, [|] 
[V:1] c4c4 [|] 
[V:2] BA2GA2G [|] 
[V:3] C2>D2EF2E [|] 
[V:4] A,2>B,2C4 [|] 
[V:1] c32 |]  
[V:2] A32 |]  
[V:3] F32 |]  
[V:4] F,32 |]  


